X:1
T:Praeambulum
T:Praeambulum
T:(Prelude) BWV 930
T:Johann Sebastian Bach
C:Johann Sebastian Bach
%%score 1 2 3 4
L:1/8
M:3/4
K:Gmin
V:1 treble 
V:2 treble 
V:3 bass 
V:4 bass 
V:1
 z DGBGD | x4 x2 | x4 x2 | x4 x2 | GBGEeG | FedcdF | EGECcE | DcA^FD=E | ^FcAFD=E | ^FcAFDc | %10
w: 1 2 4 * *||||1 4 2 1 5 2|1 5 4 3 5 1|2 4 2 1 5 2|1 5 4 3 1 2|3 5 4 3 1 2|3 5 4 3 1 5|
 x4 x2 | d6- | d2 c3 c | B6 | A3 d2 ^c | d6 :: z A^FDFA | x2 D^FAc | x4 x2 | x4 x2 | x4 x2 | %21
w: ||4 2 1|2|4 1 2|3|5 * * * *|||||
 x4 x2 | x4 x2 | x4 x2 | x4 x2 | =BG_AFdF | EGcED=B | x4 x2 | z C=EGEC | x4 x =A/B/ | AFAcAF | %31
w: ||||3 1 2 1 5 1|2 3 5 2 1 4||1 2 4 2 1||* 1 2 4 2 1|
 x4 x2 | x4 x2 | x4 x2 | x4 x2 | x4 x2 | ^FAFDAC | B,DB,G, _E z | z DAc B2 | z A TA3 G | G4 z ^F | %41
w: |||||2 4 2 1 5 1|2 4 2 1 5|1 3 * 5/1|3 * 1|5 4|
 =G6 :| %42
w: |
V:2
 x4 x2 | d2 z2 z2 | z dBGgB | Agf=ef_A | x4 x2 | x4 x2 | x4 x2 | x4 x2 | x4 x2 | x4 x2 | %10
w: |5|4 2 1 5 2|1 5 4 3 5 2|||||||
 MB/A/B/c/ Mc3 d | z AB^F G2- | GG- G=E ^F2 | z ^F G- [DG-]3 | GG M^F2 [=EG]2 | %15
w: * * * 5 2 4|2 1 2 4|5 1 2 3 5|||
 z A- [^FA]- [DFA]3 :: x4 x2 | =c2 x4 | BdBGBd | =f2 G=Bcf | egec_ac | _B_agfgB | _AcAFfA | %23
w: |||||2 4 2 1 5 1|2 5 4 3 5 2|3 5 2 1 5 2|
 GfedeG | Fedf_ac | x4 x2 | x4 x2 | Pc2 z2 z2 | x4 x2 | P_B2 TB3 x | x4 x2 | P_e2 Te3 d/e/ | %32
w: 1 5 4 * 5 2|1 4 2 * 5 1|||||3 *||3 * * *|
 dBdfba | Mg^fgbag | ^fafdac | BdBG_eG | x4 x2 | x4 x2 | z D- [DA]2 P[DG]2 | x2 ^F4 | %40
w: * 1 2 3 5 4|3 2 3 5 4 3|2 4 2 1 5 1|2 4 2 1 5 1||||2|
 z D E-[CE]- [A,CE]2 | P[=B,D]6 :| %42
w: 2 3 2 1||
V:3
 x4 x2 | z G,,B,,D,B,,G,, | x2 G,,B,,D,G, | x4 x2 | x2 E,,G,,B,,E, | B,,2 x2 B,,2 | %6
w: |5 3 2 * *|5 3 2 1||5 3 2 1|5 *|
 C,2 C,,E,,G,,C, | ^F,,2 x4 | x D,,2 z C, x | B,,2 x4 | x2 z ^F,G,A, | B,4- B,B, | MA,6 | %13
w: 1 5 3 2 1|5|* 3|5|3 2 1|||
 G,4 B,G, | z2 A,2 B,2 | A,4 z2 :: x2 D,,2 x2 | x4 x2 | x2 G,,2 x2 | x4 x2 | x2 C,2 x2 | x4 x2 | %22
w: 1 3 2|1 2||5||5||5||
 x4 x2 | =B,,2 x2 C,2 | x4 x2 | x4 =B,,2 | PC,2 E,,2 G,,2 | C,,E,,G,,C,G,,E,, | C,,2 z2 z2 | %29
w: ||||* 4 2|5 3 2 1 2 3||
 x4 x2 | x2 F,,2 z2 | x4 x2 | x2 _B,,2 x2 | x2 D,2 C,2 | z2 =E,2 ^F,2 | G,2 A,2 B,2 | %36
w: |||5|3 2|4 3|2 1 2|
 A,2 G,2 ^F,2 | G,D,B,,G,,E,G,, | M^F,,4 G,,2 | x4 D,,2 | z2 C,2- [C,E,]2 | [D,G,]6 :| %42
w: 1 2 3|1 2 3 5 2 5|||3 2|1/2|
V:4
 z6 | x4 x2 | PG,2 x4 | D,2 D2 D,2 | E,2 x4 | x2 B,2 x2 | x4 x2 | x2 ^F,2 z =E, | D,2 x2 z x | %9
w: |||5 * *||||* 2|1|
 x2 B,2 z A, | G,=F, E,4 | D,6- | D,6- | D,6 | D,6- | D,4 D,,2 :: PD,2 x2 z2 | z D,^F,A,F,D, | %18
w: 1 2|3 4 5|2/5|||5|||4 2 1 2 4|
 PG,2 x2 z2 | z G,=B,DB,G, | PC2 x2 C2 | D,2 _B,2 =E,2 | F,G,F,_E,D,C, | x2 G,2 x2 | _A,2 z2 F,2 | %25
w: |4 2 1 2 4||5 2 5|3 2 1 2 3 4|1|2 4|
 PG,2 D,2 x2 | x4 x2 | x4 x2 | x4 x2 | z C,=E,G,E,C, | PF,2 x4 | z F,A,CA,F, | B,2 x2 D,2 | %33
w: 1 3||||4 2 1 2 4|1|4 2 1 2 4|1 3|
 _E,2 x4 | D,6- | D,6- | D,6 | x4 x2 | x4 x2 | C,2 PD,2 x2 | G,,6- | G,,6 :| %42
w: 2|5||||||||

